X: 14987
T: Genevieve's
R: waltz
M: 3/4
K: Gmajor
D|:BcB AGF|GAB D2D|EGc BDB|BAG A2D
BcB AGF|GAB D2D|EGc BDB|1 AGF G2D:|2 AGF G2d||
e2e efg|d2c BAG|cdc BAG|EFG A2d
e2e efg|d2c BAG|cdc BAG|EGF G2d
e2e efg|d2c BAG|ce/f/g dBG|EFG A2D
BcB AGF|GAB D2D|EGc BDB|AGF G3||

